X:1
T:Title
%%score { ( 1 2 3 ) | ( 4 5 6 ) }
L:1/8
Q:1/4=100
M:4/4
K:C
V:1 treble nm="Grand Piano"
V:2 treble 
V:3 treble 
V:4 bass 
V:5 bass 
V:6 bass 
V:1
 z4 [CE]4 | z4 [EG]4 | [EB]2 [Ec]>A [EB]2 [Ec]>A | F6[K:bass] z2 | z4 [B,D]4[K:treble] | %5
 [G,DF]2 [G,DF]2 [G,DF]2 [G,EG]2 | [FA]2 [FB]2 [Fd]2 [FB]2 | [EG]6 z2 | E2 E2 E>^F ^G>E | %9
 [CA]2 [DB]2 [Ec]4 | C2- [C-D]>[CE] ^F2 E>D | [B,DB]6 z2 | [CGc]2 [DGB]2 [EGA]2 [EG_B]2 | %13
 [DGB]2 [C^FA]2 [B,EG]4 | [EA]2 [EAd]2 [DGB]2 [C^FA]>[FA] | [B,DG]6[K:bass] z2 | %16
 z2 [CE]2 z2 [CE]2 | [Cc]4 B4 | D,2 F2 F2 F2 | z2 ^F2 z2 G2 | G2 [CEG]2 z2 [CE]2 | %21
 z2 [^FA]2 z2 G2 | B,2 c2 c2 c2 | z2 c>c B2 B2 | z2 [^CE]2 z2 E2 | z2 G2 z2 G2 | %26
 [DF]2 [B,EG]2 [B,DB]2 [B,DA]2 | [B,E^G]6 z2 | [G^ce]4 z4 | [^Fce]4 [Fcd]4 | %30
 [CEc]2 [DFc]2 [EGc]>[DGB] [FA]>[GB][Q:1/4=98][Q:1/4=96][Q:1/4=94][Q:1/4=92][Q:1/4=90][Q:1/4=88][Q:1/4=85][Q:1/4=83][Q:1/4=81][Q:1/4=79][Q:1/4=77] | %31
 [EGc]6[K:bass] z2 |] %32
V:2
 [G,CE]2 [G,CE]2 G,2 z F | [G,EG]2 [G,EG]2 G,2 z A | x8 | z2[K:bass] G,2 G,2 G,2 | %4
 [G,B,D]2 [G,B,D]2 G,2 z[K:treble] E | x8 | x8 | x8 | D4 z4 | x8 | D2 z2 z4 | x8 | x8 | x8 | x8 | %15
 G,2[K:bass] F,2 E,2 D,2 | [G,G]4 [A,A]4 | z2 G2 z2 G2 | x8 | A,4 G,4 | G,4 [A,A]4 | [Cc]4 [B,B]4 | %22
 x8 | A,4 z4 | [B,G]4 [A,A]4 | c4 [B,B]4 | x8 | x8 | z2 ^C>C A2 [^ce]2 | z2 [A,C]>[A,C] z2 C2 | %30
 x8 | C2[K:bass] G,2 C,2 z2 |] %32
V:3
 z4 z2 G,2 | z4 z2 G,2 | x8 | x2[K:bass] x6 | z4 z2 G,2[K:treble] | x8 | x8 | x8 | x8 | x8 | x8 | %11
 x8 | x8 | x8 | x8 | x2[K:bass] x6 | x8 | x8 | x8 | x8 | x8 | x8 | x8 | x8 | x8 | x8 | x8 | x8 | %28
 x8 | x8 | x8 | x2[K:bass] x6 |] %32
V:4
 C,2 G,,2 C,2 z D | C,2 G,,2 C,2 z E | [C,G,]2 [G,,G,]2 [C,G,]2 [G,,G,]2 | [D,G,]2 z2 z4 | %4
 D,2 G,,2 D,2 z C | B,,2 G,,2 B,,2 G,,2 | [D,G,]2 [G,,G,]2 [B,,A,]2 [G,,G,]2 | %7
 [C,G,]2 G,2 E,2 C,2 | z4 D4 | A,,2 E,2 A,2 E,2 | z4 C4 | [G,,D,]2 D,2 B,,2 G,,2 | %12
 [E,,E,]2 [D,,D,]2 [C,,C,]2 [^C,,^C,]2 | [D,,D,]2 [_E,,_E,]2 [=E,,=E,]4 | %14
 C,2 z z/[K:treble] c/[K:bass] z2 z z/ C/ | G,,2 F,,2 E,,2 D,,2 | [C,,C,]4 [G,,,G,,]4 | %17
 z2 F2 z2[K:treble] F2 | z2 [A,B,D]2 [A,B,D]2 [A,B,D]2 | z2 [C_E]2 z2[K:bass] [C=E]2 | %20
 [C,,D,]4 [G,,,G,,]4 | [_E,,_E,]4 z2[K:treble] D2 | z2 [A,D^F]2 [DF]2 [A,DF]2 | %23
 z2 [DF]>[DF] [DF]2 [DF]2 | [C,,C,]4 z2 ^C2 | z2 F2 z2 F2 | B,,2 G,2 [G,,G,]2 [F,,F,]2 | %27
 [E,,E,]2 B,,2 ^G,,2 E,,2 | A,,2 A,>A,[K:treble] [A,^CG]2 [A,CG]2 | D,,2 D,>D, [D,A,C]2 [D,A,]2 | %30
 [A,,A,]2 [^G,,^G,]2 [=G,,=G,]2 z z/ F/ | C,2 G,,2 C,,2 z2 |] %32
V:5
 z4 z2 G,,2 | z4 z2 G,,2 | x8 | B,2- [G,,B,-]2 [D,B,]2 G,,2 | z4 z2 G,,2 | x8 | x8 | x8 | %8
 B,,2 E,2 ^G,2 E,2 | x8 | ^F,,2 D,2 A,2 D,2 | x8 | x8 | x8 | z2 A,,2[K:treble][K:bass] D,4 | x8 | %16
 x8 | [D,,D,]4 [G,,,G,,]4[K:treble] | x8 | x6[K:bass] x2 | x8 | z4 [D,,D,]4[K:treble] | x8 | %23
 z4 G,4 | z4 [G,,,G,,]4 | [B,,,D,C]4 [G,,,G,,]4 | x8 | x8 | x4[K:treble] x4 | x8 | z4 z2 [G,,G,]2 | %31
 x8 |] %32
V:6
 x8 | x8 | x8 | x8 | x8 | x8 | x8 | x8 | x8 | x8 | x8 | x8 | x8 | x8 | %14
 z4[K:treble][K:bass] z2 D,,2 | x8 | x8 | x6[K:treble] x2 | x8 | x6[K:bass] x2 | x8 | %21
 x6[K:treble] x2 | x8 | x8 | x8 | x8 | x8 | x8 | x4[K:treble] x4 | x8 | x8 | x8 |] %32

